icons/svg/arrow-expand-all.svg

﻿<?xml version="1.0" encoding="utf-8"?>
<!DOCTYPE svg PUBLIC "-//W3C//DTD SVG 1.1//EN" "http://www.w3.org/Graphics/SVG/1.1/DTD/svg11.dtd">
<svg xmlns="http://www.w3.org/2000/svg" xmlns:xlink="http://www.w3.org/1999/xlink" version="1.1" baseProfile="full" width="24" height="24" viewBox="0 0 24.00 24.00" enable-background="new 0 0 24.00 24.00" xml:space="preserve">
	<path fill="#000000" fill-opacity="1" stroke-width="0.2" stroke-linejoin="round" d="M 9.49263,13.0931L 10.9068,14.5073L 6.41421,19L 10,19L 10,21L 3,21L 3,14L 5,14L 5,17.5858L 9.49263,13.0931 Z M 10.9069,9.49266L 9.49265,10.9069L 5,6.41422L 5,10L 3,10L 3,3.00001L 10,3L 10,5L 6.41421,5L 10.9069,9.49266 Z M 14.5074,13.0931L 19,17.5858L 19,14L 21,14L 21,21L 14,21L 14,19L 17.5858,19L 13.0932,14.5073L 14.5074,13.0931 Z M 13.0931,9.49265L 17.5858,5L 14,5L 14,3L 21,3L 21,10L 19,10L 19,6.41421L 14.5073,10.9069L 13.0931,9.49265 Z "/>
</svg>

<svg xmlns="http://www.w3.org/2000/svg" version="1.1" baseProfile="full" width="24" height="24" viewBox="0 0 24.00 24.00" xml:space="preserve"><path fill="#000" fill-opacity="1" stroke-width=".2" stroke-linejoin="round" d="M9.493 13.093l1.414 1.414L6.414 19H10v2H3v-7h2v3.586l4.493-4.493zm1.414-3.6l-1.414 1.414L5 6.414V10H3V3h7v2H6.414l4.493 4.493zm3.6 3.6L19 17.586V14h2v7h-7v-2h3.586l-4.493-4.493 1.414-1.414zm-1.414-3.6L17.586 5H14V3h7v7h-2V6.414l-4.493 4.493-1.414-1.414z"/></svg>
